build/img/logo-mobile-2.svg

<svg width="101" height="19" viewBox="0 0 101 19" fill="none" xmlns="http://www.w3.org/2000/svg">
<g clip-path="url(#clip0_15082_523)">
<path d="M1.26449 17.346C0.36955 16.0847 -0.0747041 14.5725 1.02073e-05 13.0418V6.6623C-0.108365 5.11513 0.308071 3.5761 1.18546 2.28122C2.05478 1.28203 3.39829 0.820862 5.37403 0.820862C7.34978 0.820862 8.61425 1.28203 9.40455 2.1275C10.2626 3.19835 10.6846 4.53922 10.59 5.89369V7.43091H6.71754V5.66311C6.74881 5.14026 6.66808 4.6168 6.48045 4.12589C6.38016 3.92773 6.2212 3.76328 6.02403 3.65371C5.82686 3.54413 5.60049 3.49443 5.37403 3.511C4.82082 3.511 4.42568 3.66472 4.26762 4.04902C4.08883 4.59514 4.00862 5.16724 4.03053 5.73997V13.9641C3.98879 14.5198 4.0978 15.0763 4.34665 15.5782C4.5047 15.9625 4.89985 16.1162 5.45306 16.1162C6.00627 16.1162 6.32239 15.9625 6.48045 15.5782C6.66013 15.0587 6.74049 14.5117 6.71754 13.9641V12.1194H10.59V13.6567C10.6704 15.0332 10.2508 16.3935 9.40455 17.4997C8.61425 18.422 7.27075 18.8832 5.37403 18.8832C3.47732 18.8063 2.05478 18.3452 1.26449 17.346Z" fill="#111111"/>
<path d="M15.2527 1.05269H19.7574L23.0767 18.577H19.4413L18.8091 14.8877H16.2011L15.5689 18.577H11.8545L15.2527 1.05269ZM18.493 12.5818L17.5446 5.74121L16.5962 12.5818H18.493Z" fill="#111111"/>
<path d="M25.8427 3.97341H23.1557V1.05269H32.5603V3.89655H29.8732V18.577H25.8427V3.97341Z" fill="#111111"/>
<path d="M39.7519 1.05269H46.7066V2.89735H42.2019V8.66193H45.8372V10.4297H42.2019V16.8861H46.7066V18.6539H39.6729V1.05269H39.7519Z" fill="#111111"/>
<path d="M48.7613 1.05269H50.5L55.6369 12.6587V1.05269H57.6917V18.577H56.1111L50.8951 6.58668V18.577H48.7613V1.05269Z" fill="#111111"/>
<path d="M60.0626 1.05269H67.0172V2.89735H62.5125V8.66193H66.1479V10.4297H62.5125V16.8861H67.0172V18.6539H60.0626V1.05269Z" fill="#111111"/>
<path d="M69.072 1.05285H72.7074C74.1375 0.956772 75.5587 1.3362 76.7379 2.1289C77.6072 2.82065 78.0024 4.05043 78.0024 5.66451C78.0024 7.89348 77.2911 9.27697 75.7895 9.73814L78.3185 18.5003H75.8686L73.4977 10.2762H71.5219V18.5003H68.993V1.05285H69.072ZM72.5493 8.58523C73.364 8.65052 74.1761 8.43264 74.8412 7.97034C75.3153 7.58603 75.5524 6.81742 75.5524 5.66451C75.5743 5.09178 75.4941 4.51968 75.3153 3.97357C75.1375 3.58169 74.832 3.2576 74.446 3.05123C73.9017 2.81 73.3042 2.70434 72.7074 2.74379H71.6009V8.50836H72.5493V8.58523Z" fill="#111111"/>
<path d="M81.1635 17.2702C80.342 15.9264 79.9564 14.3727 80.0571 12.8123V6.97087C80.0376 5.85703 80.1705 4.74562 80.4523 3.66585C80.7167 2.85897 81.2437 2.15759 81.9538 1.66746C82.8362 1.15947 83.8542 0.918642 84.8779 0.97571C86.5375 0.97571 87.723 1.36002 88.4343 2.20549C89.2525 3.32188 89.6438 4.68125 89.5407 6.04854V6.66342H87.1698V6.1254C87.1734 5.48168 87.1205 4.83885 87.0117 4.20387C86.9451 3.80261 86.7178 3.44335 86.3795 3.20468C85.9353 2.92111 85.4081 2.78619 84.8779 2.82037C84.3113 2.78506 83.7504 2.9487 83.2973 3.28154C83.1114 3.43389 82.9595 3.62154 82.8508 3.833C82.7421 4.04446 82.6789 4.27528 82.6651 4.51132C82.5609 5.19844 82.5081 5.89201 82.507 6.58656V13.1197C82.4488 14.1151 82.6105 15.111 82.9812 16.0405C83.2973 16.6554 83.9296 16.8859 84.8779 16.8859C85.2524 16.9313 85.6323 16.868 85.9698 16.7038C86.3073 16.5397 86.5873 16.2822 86.7746 15.9636C87.1922 14.9917 87.3812 13.9413 87.3278 12.8892V11.6594H85.036V9.89159H89.6197V18.5769H88.0391L87.802 16.5785C87.5948 17.2482 87.1634 17.8314 86.5763 18.2353C85.9892 18.6391 85.2801 18.8405 84.5618 18.8075C83.9088 18.8448 83.2565 18.7239 82.6634 18.4556C82.0702 18.1873 81.5549 17.78 81.1635 17.2702Z" fill="#111111"/>
<path d="M94.6776 12.4293L90.8052 1.13071H93.176L95.9421 9.58542L98.6291 1.13071H101L97.1275 12.4293V18.5782H94.7566V12.4293H94.6776Z" fill="#111111"/>
</g>
<defs>
<clipPath id="clip0_15082_523">
<rect width="101" height="17.9855" fill="white" transform="translate(0 0.820862)"/>
</clipPath>
</defs>
</svg>

<svg width="101" height="19" fill="none" xmlns="http://www.w3.org/2000/svg"><g clip-path="url(#clip0_15082_523)" fill="#111"><path d="M1.264 17.346A6.855 6.855 0 010 13.042v-6.38a6.94 6.94 0 011.185-4.38c.87-1 2.213-1.461 4.189-1.461s3.24.461 4.03 1.306a5.415 5.415 0 011.186 3.767V7.43H6.718V5.663a3.687 3.687 0 00-.238-1.537 1.12 1.12 0 00-.456-.472 1.164 1.164 0 00-.65-.143c-.553 0-.948.154-1.106.538A4.838 4.838 0 004.03 5.74v8.224a3.107 3.107 0 00.316 1.614c.158.385.553.538 1.106.538s.87-.153 1.027-.538c.18-.52.26-1.066.238-1.614V12.12h3.872v1.538A5.767 5.767 0 019.405 17.5c-.79.922-2.134 1.383-4.031 1.383-1.897-.077-3.32-.538-4.11-1.537zM15.253 1.053h4.504l3.32 17.524H19.44l-.632-3.69H16.2l-.632 3.69h-3.715l3.399-17.524zm3.24 11.529l-.948-6.84-.949 6.84h1.897zm7.35-8.609h-2.687v-2.92h9.404v2.844h-2.687v14.68h-4.03V3.973zm13.909-2.92h6.955v1.844h-4.505v5.765h3.635v1.768h-3.635v6.456h4.505v1.768h-7.034V1.053h.079zm9.009 0H50.5l5.137 11.606V1.053h2.055v17.524h-1.58l-5.217-11.99v11.99h-2.134V1.053zm11.302 0h6.954v1.844h-4.504v5.765h3.635v1.768h-3.635v6.456h4.504v1.768h-6.954V1.053zm9.009 0h3.635a6.455 6.455 0 014.03 1.076c.87.692 1.265 1.921 1.265 3.536 0 2.228-.71 3.612-2.212 4.073l2.528 8.762h-2.45l-2.37-8.224h-1.976V18.5h-2.529V1.053h.079zm3.477 7.532a3.526 3.526 0 002.292-.615c.474-.384.711-1.153.711-2.305a4.838 4.838 0 00-.237-1.691 1.973 1.973 0 00-.869-.923 3.693 3.693 0 00-1.739-.307h-1.106v5.764h.948v.077zm8.614 8.685a7.602 7.602 0 01-1.106-4.458V6.971c-.02-1.114.114-2.225.395-3.305a3.913 3.913 0 011.502-1.999 5.277 5.277 0 012.924-.691c1.66 0 2.845.384 3.556 1.23a5.763 5.763 0 011.107 3.843v.614H87.17v-.538a11.15 11.15 0 00-.158-1.921 1.532 1.532 0 00-.633-1 2.495 2.495 0 00-1.501-.384 2.418 2.418 0 00-1.58.462c-.187.152-.338.34-.447.551a1.7 1.7 0 00-.186.678 14.006 14.006 0 00-.158 2.076v6.533a6.808 6.808 0 00.474 2.92c.316.615.949.846 1.897.846a1.96 1.96 0 001.092-.182 1.89 1.89 0 00.805-.74 6.898 6.898 0 00.553-3.075v-1.23h-2.292V9.892h4.584v8.685h-1.58l-.238-1.999a3.141 3.141 0 01-1.226 1.657 3.291 3.291 0 01-2.014.573 4.049 4.049 0 01-1.899-.352 3.931 3.931 0 01-1.5-1.186zm13.515-4.84l-3.873-11.3h2.371l2.766 8.455 2.687-8.454H101l-3.873 11.298v6.15h-2.37v-6.15h-.08z"/></g><defs><clipPath id="clip0_15082_523"><path fill="#fff" transform="translate(0 .82)" d="M0 0h101v17.985H0z"/></clipPath></defs></svg>
